X: 229
P: Longways for as many as will
M: 6/4
L: 1/4
K: Gm
|:\
f>ed e>dc | d>ed c>BA | B>AG A^F2 | G3- G3 :|
|: B2c dBG | B2c dBG | B2c d2g | ^f3 d3 :|\
|: ABc c>dc | f2c A2A | Bcd d>ed |
g2f =e>dc | f2f f>ed | c2B A2^f |\
[1 g>ag gdc | B3 G3 :|\
[2 g2d =e>dc | =B3 G3 |]

